X: 201
T: MISS HENRIETTA ABERNETHIE
C: I. COOPER
R: Strathspey
B: Glen Collection p.20 #1
Z: 2011 John Chambers <jc:trillian.mit.edu>
M: C
L: 1/8
V: 1 middle=B clef=treble
V: 2 middle=d clef=bass
%%score {1 | 2}
K: C
%
V: 1
|:\
(c>d) e<c d<B d>A | G>c E>C D/D/D D2 |(c>d) e<c d<B d>A |   G>E  F>D C/C/C C2 :|
 C>E  G>E c>e d>B | c>A G>E D/D/D D2 | C>E  G>E c>e d>c |(B/c/B) G>B c/c/c c2 |
 C>E  G>E c>e d>B | c>A G>E D/D/D D2 | g>e  f>d e>c d>B |   G>B  d>B c/c/c c2 |]
%
V: 2
|:\
c2[g2c2] [f2c2][e2c2] | c2[c'2g2] G2[b2g2] |\
c2[g2c2] [f2c2][e2c2] | c2[b2g2] [g2e2c2][g2e2c2] :|
c2[c'2g2] [c'2g2][b2g2] | c2[g2e2] G2[b2g2d2] |\
c2[c'2g2] [c'2g2][c'2g2] | G2[f2d2] [e2c2][g2e2c2] |
c2[c'2g2] [c'2g2][b2g2] | c2[g2e2] G2[b2g2d2] |\
c2[b2g2] [c'2g2][b2g2] | g2[f2G2] [e2c2][c'2g2e2c2] |]
